X: 21401
T: MISS SKEEN'S STRATHSPEY
R: strathspey
B: K\"ohler's Violin Repository, v.2, 1885 p.140 #1
F: http://www.archive.org/details/klersviolinrepos02rugg
Z: 2012 John Chambers <jc:trillian.mit.edu>
M: C|
L: 1/8
K: A
uE/ |\
([EC]>A) ([EC]>A) ([FD]>A) (.[EC]>.c) | (.d>.B) (c<A) F<BBc |\
(E<A) (.E>.E) (.A>.c)(ed) | (c>e)(B>e) c<AA> :|
uc |\
(.d>.f)(c>B)  (A>B)(A>c) | (d>B) (c<A) G<BB>c |\
(.d>f)(c>B) (A>c)(e>d) | c<e (B>d) (c<A) A> |]
g |\
(.a>.e)(f>d) (.e>.c)(A>c) | (d>B)(c>A) G<BB>c |\
(A/B/c/d/) (e>c) (f>d)(e>d) | (c>e)(B>e) "_Segue Reel."c<AA> "^D.C."|]

%%sep 2 1 500

